X: 1
T: Miss Cathrine Chalmers
C: Nathaniel Gow
B: BSFC VI-13
Z: 1997 by John Chambers <jc:trillian.mit.edu>
M: C
L: 1/8
K: G
c \
| "G"B/c/d cB "C"c/d/e dc | "Em"BE A>G "D7"F2 ED \
| "G"BG DB, "Am"CE Ac | "G"B>G "D7"AF "G"G3 :|
d \
| "Em"gb ge "B"^df bd | "C"eg ed "A"^ce ac \
| "D"de fd "Em"Bg eg | "D"fd "A7"e^c "D"d2 D2 ||
| "Bm"(3dcB bB "Am"ca Ac | "G"Bg GB "D7"AF ED \
| "G"dB Bd "D7"cA Ac | "Em"B>G "D7"AF "G"G3 |]
